icons/modern/grinning-face-with-sweat.svg

<svg width="32" height="32" viewBox="0 0 32 32" fill="none" xmlns="http://www.w3.org/2000/svg">
<path d="M15.9989 29.9978C25.3333 29.9978 29.9978 23.7303 29.9978 15.9989C29.9978 8.26751 25.3333 2 15.9989 2C6.66443 2 2 8.26751 2 15.9989C2 23.7303 6.66443 29.9978 15.9989 29.9978Z" fill="url(#paint0_radial_23_367)"/>
<path d="M15.9989 29.9978C25.3333 29.9978 29.9978 23.7303 29.9978 15.9989C29.9978 8.26751 25.3333 2 15.9989 2C6.66443 2 2 8.26751 2 15.9989C2 23.7303 6.66443 29.9978 15.9989 29.9978Z" fill="url(#paint1_radial_23_367)"/>
<path d="M15.9989 29.9978C25.3333 29.9978 29.9978 23.7303 29.9978 15.9989C29.9978 8.26751 25.3333 2 15.9989 2C6.66443 2 2 8.26751 2 15.9989C2 23.7303 6.66443 29.9978 15.9989 29.9978Z" fill="url(#paint2_radial_23_367)"/>
<path d="M15.9989 29.9978C25.3333 29.9978 29.9978 23.7303 29.9978 15.9989C29.9978 8.26751 25.3333 2 15.9989 2C6.66443 2 2 8.26751 2 15.9989C2 23.7303 6.66443 29.9978 15.9989 29.9978Z" fill="url(#paint3_radial_23_367)" fill-opacity="0.6"/>
<path d="M15.9989 29.9978C25.3333 29.9978 29.9978 23.7303 29.9978 15.9989C29.9978 8.26751 25.3333 2 15.9989 2C6.66443 2 2 8.26751 2 15.9989C2 23.7303 6.66443 29.9978 15.9989 29.9978Z" fill="url(#paint4_radial_23_367)"/>
<path d="M15.9989 29.9978C25.3333 29.9978 29.9978 23.7303 29.9978 15.9989C29.9978 8.26751 25.3333 2 15.9989 2C6.66443 2 2 8.26751 2 15.9989C2 23.7303 6.66443 29.9978 15.9989 29.9978Z" fill="url(#paint5_radial_23_367)"/>
<path d="M15.9989 29.9978C25.3333 29.9978 29.9978 23.7303 29.9978 15.9989C29.9978 8.26751 25.3333 2 15.9989 2C6.66443 2 2 8.26751 2 15.9989C2 23.7303 6.66443 29.9978 15.9989 29.9978Z" fill="url(#paint6_radial_23_367)"/>
<path d="M15.9989 29.9978C25.3333 29.9978 29.9978 23.7303 29.9978 15.9989C29.9978 8.26751 25.3333 2 15.9989 2C6.66443 2 2 8.26751 2 15.9989C2 23.7303 6.66443 29.9978 15.9989 29.9978Z" fill="url(#paint7_radial_23_367)"/>
<g opacity="0.5" filter="url(#filter0_f_23_367)">
<path d="M8.5 13.5C8.5 13.5 8.75 11.5 11 11.5C13.25 11.5 13.5 13.5 13.5 13.5" stroke="#9A4609" stroke-width="2" stroke-linecap="round"/>
</g>
<g opacity="0.5" filter="url(#filter1_f_23_367)">
<path d="M17.5 13.5C17.5 13.5 18 11.5 20 11.5C22 11.5 22.5 13.5 22.5 13.5" stroke="#9A4609" stroke-width="2" stroke-linecap="round"/>
</g>
<path d="M9 13C9 13 9.25 11 11.5 11C13.75 11 14 13 14 13" stroke="#43273B" stroke-width="2" stroke-linecap="round" stroke-linejoin="round"/>
<g opacity="0.26" filter="url(#filter2_f_23_367)">
<path d="M9.25 12.75C9.25 12.75 9.5 10.75 11.75 10.75C14 10.75 14.25 12.75 14.25 12.75" stroke="white" stroke-width="0.75" stroke-linecap="round" stroke-linejoin="round"/>
</g>
<path d="M18 13C18 13 18.5 11 20.5 11C22.5 11 23 13 23 13" stroke="#43273B" stroke-width="2" stroke-linecap="round" stroke-linejoin="round"/>
<g opacity="0.26" filter="url(#filter3_f_23_367)">
<path d="M18.25 12.75C18.25 12.75 18.5 10.75 20.75 10.75C23 10.75 23.25 12.75 23.25 12.75" stroke="white" stroke-width="0.75" stroke-linecap="round" stroke-linejoin="round"/>
</g>
<path d="M16 25C7 25 7 16 7 16H25C25 16 25 25 16 25Z" fill="url(#paint8_radial_23_367)"/>
<path d="M8 16.5V16H24V16.5C24 17.0523 23.5523 17.5 23 17.5H9C8.44772 17.5 8 17.0523 8 16.5Z" fill="url(#paint9_linear_23_367)"/>
<path fill-rule="evenodd" clip-rule="evenodd" d="M22 3.05054C21.3814 3.6818 21 4.54636 21 5.49999V12.5C21 14.433 22.567 16 24.5 16C26.433 16 28 14.433 28 12.5V8.12172C26.6671 5.87612 24.6672 4.09919 22 3.05054Z" fill="url(#paint10_radial_23_367)"/>
<rect x="24" y="2" width="5" height="10" rx="2.5" fill="url(#paint11_radial_23_367)"/>
<defs>
<filter id="filter0_f_23_367" x="6" y="9" width="10" height="7.00012" filterUnits="userSpaceOnUse" color-interpolation-filters="sRGB">
<feFlood flood-opacity="0" result="BackgroundImageFix"/>
<feBlend mode="normal" in="SourceGraphic" in2="BackgroundImageFix" result="shape"/>
<feGaussianBlur stdDeviation="0.75" result="effect1_foregroundBlur_23_367"/>
</filter>
<filter id="filter1_f_23_367" x="14.9998" y="9" width="10.0005" height="7.00024" filterUnits="userSpaceOnUse" color-interpolation-filters="sRGB">
<feFlood flood-opacity="0" result="BackgroundImageFix"/>
<feBlend mode="normal" in="SourceGraphic" in2="BackgroundImageFix" result="shape"/>
<feGaussianBlur stdDeviation="0.75" result="effect1_foregroundBlur_23_367"/>
</filter>
<filter id="filter2_f_23_367" x="7.375" y="8.875" width="8.75" height="5.75" filterUnits="userSpaceOnUse" color-interpolation-filters="sRGB">
<feFlood flood-opacity="0" result="BackgroundImageFix"/>
<feBlend mode="normal" in="SourceGraphic" in2="BackgroundImageFix" result="shape"/>
<feGaussianBlur stdDeviation="0.75" result="effect1_foregroundBlur_23_367"/>
</filter>
<filter id="filter3_f_23_367" x="16.375" y="8.875" width="8.75" height="5.75" filterUnits="userSpaceOnUse" color-interpolation-filters="sRGB">
<feFlood flood-opacity="0" result="BackgroundImageFix"/>
<feBlend mode="normal" in="SourceGraphic" in2="BackgroundImageFix" result="shape"/>
<feGaussianBlur stdDeviation="0.75" result="effect1_foregroundBlur_23_367"/>
</filter>
<radialGradient id="paint0_radial_23_367" cx="0" cy="0" r="1" gradientUnits="userSpaceOnUse" gradientTransform="translate(25.5 9) rotate(132.839) scale(37.5033)">
<stop stop-color="#FFF478"/>
<stop offset="0.474827" stop-color="#FFB02E"/>
<stop offset="1" stop-color="#F70A8D"/>
</radialGradient>
<radialGradient id="paint1_radial_23_367" cx="0" cy="0" r="1" gradientUnits="userSpaceOnUse" gradientTransform="translate(25.5 9) rotate(131.878) scale(38.9487)">
<stop stop-color="#FFF478"/>
<stop offset="0.474827" stop-color="#FFB02E"/>
<stop offset="1" stop-color="#F70A8D"/>
</radialGradient>
<radialGradient id="paint2_radial_23_367" cx="0" cy="0" r="1" gradientUnits="userSpaceOnUse" gradientTransform="translate(16 12.5) rotate(101.31) scale(17.8466 22.8581)">
<stop offset="0.787821" stop-color="#F59639" stop-opacity="0"/>
<stop offset="0.972509" stop-color="#FF7DCE"/>
</radialGradient>
<radialGradient id="paint3_radial_23_367" cx="0" cy="0" r="1" gradientUnits="userSpaceOnUse" gradientTransform="translate(18 14) rotate(135) scale(41.0122)">
<stop offset="0.314853" stop-opacity="0"/>
<stop offset="1"/>
</radialGradient>
<radialGradient id="paint4_radial_23_367" cx="0" cy="0" r="1" gradientUnits="userSpaceOnUse" gradientTransform="translate(16 17) rotate(77.692) scale(28.1469)">
<stop offset="0.507903" stop-color="#7D6133" stop-opacity="0"/>
<stop offset="1" stop-color="#715B32"/>
</radialGradient>
<radialGradient id="paint5_radial_23_367" cx="0" cy="0" r="1" gradientUnits="userSpaceOnUse" gradientTransform="translate(16.5 16.5) rotate(55.7131) scale(13.3135 9.65032)">
<stop stop-color="#FFB849"/>
<stop offset="1" stop-color="#FFB847" stop-opacity="0"/>
</radialGradient>
<radialGradient id="paint6_radial_23_367" cx="0" cy="0" r="1" gradientUnits="userSpaceOnUse" gradientTransform="translate(20.5 18) rotate(9.86581) scale(11.6726)">
<stop stop-color="#FFA64B"/>
<stop offset="0.900412" stop-color="#FFAE46" stop-opacity="0"/>
</radialGradient>
<radialGradient id="paint7_radial_23_367" cx="0" cy="0" r="1" gradientUnits="userSpaceOnUse" gradientTransform="translate(17.5 15) rotate(43.9708) scale(59.0529)">
<stop offset="0.185425" stop-opacity="0"/>
<stop offset="1" stop-opacity="0.4"/>
</radialGradient>
<radialGradient id="paint8_radial_23_367" cx="0" cy="0" r="1" gradientUnits="userSpaceOnUse" gradientTransform="translate(16 27) rotate(-90) scale(11 22)">
<stop stop-color="#F70A8D"/>
<stop offset="1" stop-color="#89029C"/>
</radialGradient>
<linearGradient id="paint9_linear_23_367" x1="16" y1="16" x2="16" y2="17.5" gradientUnits="userSpaceOnUse">
<stop stop-color="#ECCDFF"/>
<stop offset="1" stop-color="white"/>
</linearGradient>
<radialGradient id="paint10_radial_23_367" cx="0" cy="0" r="1" gradientUnits="userSpaceOnUse" gradientTransform="translate(26.5 4.5) rotate(109.29) scale(10.5948 4.89516)">
<stop stop-color="#392108"/>
<stop offset="1" stop-color="#C87928" stop-opacity="0"/>
</radialGradient>
<radialGradient id="paint11_radial_23_367" cx="0" cy="0" r="1" gradientUnits="userSpaceOnUse" gradientTransform="translate(28.1667 2.45455) rotate(103.449) scale(10.7493 3.72027)">
<stop stop-color="#5C98FF"/>
<stop offset="0.805982" stop-color="#3D5BF1"/>
<stop offset="0.962238" stop-color="#6065CA"/>
</radialGradient>
</defs>
</svg>

<svg width="32" height="32" fill="none" xmlns="http://www.w3.org/2000/svg"><path d="M15.999 29.998c9.334 0 13.999-6.268 13.999-14 0-7.73-4.665-13.998-14-13.998C6.665 2 2 8.268 2 15.999c0 7.731 4.664 13.999 13.999 13.999Z" fill="url(#a)"/><path d="M15.999 29.998c9.334 0 13.999-6.268 13.999-14 0-7.73-4.665-13.998-14-13.998C6.665 2 2 8.268 2 15.999c0 7.731 4.664 13.999 13.999 13.999Z" fill="url(#b)"/><path d="M15.999 29.998c9.334 0 13.999-6.268 13.999-14 0-7.73-4.665-13.998-14-13.998C6.665 2 2 8.268 2 15.999c0 7.731 4.664 13.999 13.999 13.999Z" fill="url(#c)"/><path d="M15.999 29.998c9.334 0 13.999-6.268 13.999-14 0-7.73-4.665-13.998-14-13.998C6.665 2 2 8.268 2 15.999c0 7.731 4.664 13.999 13.999 13.999Z" fill="url(#d)" fill-opacity=".6"/><path d="M15.999 29.998c9.334 0 13.999-6.268 13.999-14 0-7.73-4.665-13.998-14-13.998C6.665 2 2 8.268 2 15.999c0 7.731 4.664 13.999 13.999 13.999Z" fill="url(#e)"/><path d="M15.999 29.998c9.334 0 13.999-6.268 13.999-14 0-7.73-4.665-13.998-14-13.998C6.665 2 2 8.268 2 15.999c0 7.731 4.664 13.999 13.999 13.999Z" fill="url(#f)"/><path d="M15.999 29.998c9.334 0 13.999-6.268 13.999-14 0-7.73-4.665-13.998-14-13.998C6.665 2 2 8.268 2 15.999c0 7.731 4.664 13.999 13.999 13.999Z" fill="url(#g)"/><path d="M15.999 29.998c9.334 0 13.999-6.268 13.999-14 0-7.73-4.665-13.998-14-13.998C6.665 2 2 8.268 2 15.999c0 7.731 4.664 13.999 13.999 13.999Z" fill="url(#h)"/><g opacity=".5" filter="url(#i)"><path d="M8.5 13.5s.25-2 2.5-2 2.5 2 2.5 2" stroke="#9A4609" stroke-width="2" stroke-linecap="round"/></g><g opacity=".5" filter="url(#j)"><path d="M17.5 13.5s.5-2 2.5-2 2.5 2 2.5 2" stroke="#9A4609" stroke-width="2" stroke-linecap="round"/></g><path d="M9 13s.25-2 2.5-2 2.5 2 2.5 2" stroke="#43273B" stroke-width="2" stroke-linecap="round" stroke-linejoin="round"/><g opacity=".26" filter="url(#k)"><path d="M9.25 12.75s.25-2 2.5-2 2.5 2 2.5 2" stroke="#fff" stroke-width=".75" stroke-linecap="round" stroke-linejoin="round"/></g><path d="M18 13s.5-2 2.5-2 2.5 2 2.5 2" stroke="#43273B" stroke-width="2" stroke-linecap="round" stroke-linejoin="round"/><g opacity=".26" filter="url(#l)"><path d="M18.25 12.75s.25-2 2.5-2 2.5 2 2.5 2" stroke="#fff" stroke-width=".75" stroke-linecap="round" stroke-linejoin="round"/></g><path d="M16 25c-9 0-9-9-9-9h18s0 9-9 9Z" fill="url(#m)"/><path d="M8 16.5V16h16v.5a1 1 0 0 1-1 1H9a1 1 0 0 1-1-1Z" fill="url(#n)"/><path fill-rule="evenodd" clip-rule="evenodd" d="M22 3.05c-.619.632-1 1.496-1 2.45v7a3.5 3.5 0 1 0 7 0V8.122c-1.333-2.246-3.333-4.023-6-5.071Z" fill="url(#o)"/><rect x="24" y="2" width="5" height="10" rx="2.5" fill="url(#p)"/><defs><radialGradient id="a" cx="0" cy="0" r="1" gradientUnits="userSpaceOnUse" gradientTransform="rotate(132.839 10.786 10.065) scale(37.5033)"><stop stop-color="#FFF478"/><stop offset=".475" stop-color="#FFB02E"/><stop offset="1" stop-color="#F70A8D"/></radialGradient><radialGradient id="b" cx="0" cy="0" r="1" gradientUnits="userSpaceOnUse" gradientTransform="rotate(131.878 10.74 10.193) scale(38.9487)"><stop stop-color="#FFF478"/><stop offset=".475" stop-color="#FFB02E"/><stop offset="1" stop-color="#F70A8D"/></radialGradient><radialGradient id="c" cx="0" cy="0" r="1" gradientUnits="userSpaceOnUse" gradientTransform="rotate(101.31 2.876 12.808) scale(17.8466 22.8581)"><stop offset=".788" stop-color="#F59639" stop-opacity="0"/><stop offset=".973" stop-color="#FF7DCE"/></radialGradient><radialGradient id="d" cx="0" cy="0" r="1" gradientUnits="userSpaceOnUse" gradientTransform="matrix(-29 29 -29 -29 18 14)"><stop offset=".315" stop-opacity="0"/><stop offset="1"/></radialGradient><radialGradient id="e" cx="0" cy="0" r="1" gradientUnits="userSpaceOnUse" gradientTransform="rotate(77.692 -2.555 18.434) scale(28.1469)"><stop offset=".508" stop-color="#7D6133" stop-opacity="0"/><stop offset="1" stop-color="#715B32"/></radialGradient><radialGradient id="f" cx="0" cy="0" r="1" gradientUnits="userSpaceOnUse" gradientTransform="rotate(55.713 -7.36 23.86) scale(13.3135 9.65032)"><stop stop-color="#FFB849"/><stop offset="1" stop-color="#FFB847" stop-opacity="0"/></radialGradient><radialGradient id="g" cx="0" cy="0" r="1" gradientUnits="userSpaceOnUse" gradientTransform="matrix(11.49998 2 -2 11.49998 20.5 18)"><stop stop-color="#FFA64B"/><stop offset=".9" stop-color="#FFAE46" stop-opacity="0"/></radialGradient><radialGradient id="h" cx="0" cy="0" r="1" gradientUnits="userSpaceOnUse" gradientTransform="rotate(43.971 -9.827 29.173) scale(59.0529)"><stop offset=".185" stop-opacity="0"/><stop offset="1" stop-opacity=".4"/></radialGradient><radialGradient id="m" cx="0" cy="0" r="1" gradientUnits="userSpaceOnUse" gradientTransform="matrix(0 -11 22 0 16 27)"><stop stop-color="#F70A8D"/><stop offset="1" stop-color="#89029C"/></radialGradient><radialGradient id="o" cx="0" cy="0" r="1" gradientUnits="userSpaceOnUse" gradientTransform="matrix(-3.49999 10 -4.62034 -1.61711 26.5 4.5)"><stop stop-color="#392108"/><stop offset="1" stop-color="#C87928" stop-opacity="0"/></radialGradient><radialGradient id="p" cx="0" cy="0" r="1" gradientUnits="userSpaceOnUse" gradientTransform="rotate(103.449 13.115 12.34) scale(10.7493 3.72027)"><stop stop-color="#5C98FF"/><stop offset=".806" stop-color="#3D5BF1"/><stop offset=".962" stop-color="#6065CA"/></radialGradient><filter id="i" x="6" y="9" width="10" height="7" filterUnits="userSpaceOnUse" color-interpolation-filters="sRGB"><feFlood flood-opacity="0" result="BackgroundImageFix"/><feBlend in="SourceGraphic" in2="BackgroundImageFix" result="shape"/><feGaussianBlur stdDeviation=".75" result="effect1_foregroundBlur_23_367"/></filter><filter id="j" x="15" y="9" width="10.001" height="7" filterUnits="userSpaceOnUse" color-interpolation-filters="sRGB"><feFlood flood-opacity="0" result="BackgroundImageFix"/><feBlend in="SourceGraphic" in2="BackgroundImageFix" result="shape"/><feGaussianBlur stdDeviation=".75" result="effect1_foregroundBlur_23_367"/></filter><filter id="k" x="7.375" y="8.875" width="8.75" height="5.75" filterUnits="userSpaceOnUse" color-interpolation-filters="sRGB"><feFlood flood-opacity="0" result="BackgroundImageFix"/><feBlend in="SourceGraphic" in2="BackgroundImageFix" result="shape"/><feGaussianBlur stdDeviation=".75" result="effect1_foregroundBlur_23_367"/></filter><filter id="l" x="16.375" y="8.875" width="8.75" height="5.75" filterUnits="userSpaceOnUse" color-interpolation-filters="sRGB"><feFlood flood-opacity="0" result="BackgroundImageFix"/><feBlend in="SourceGraphic" in2="BackgroundImageFix" result="shape"/><feGaussianBlur stdDeviation=".75" result="effect1_foregroundBlur_23_367"/></filter><linearGradient id="n" x1="16" y1="16" x2="16" y2="17.5" gradientUnits="userSpaceOnUse"><stop stop-color="#ECCDFF"/><stop offset="1" stop-color="#fff"/></linearGradient></defs></svg>
